X:3
T:Co-operative H’pipe,The,aka. RDO.03
T:Miss Green’s Hp,aka. RDO.03
M:4/4
L:1/8
Q:1/2=80
C:untitled in ms, my title.
S:Robert D. Owen MS,Indiana,1826.
R:.Hornpipe
O:Indiana,USA
A:New Harmony
Z:vmp.Chris Partington
K:C
G2|c<eg2g^fge|c<eG2c<eG2|d^cde fgag|fedc BGAB|!
c<eg2g^fge|c<eG2ceG2|d^cde fagf|e2c2c2:|!
|:gf|egeg c’geg|fgag “unclear”f2f2|fgag fgef|decd cBAG|!
c2ed cBAG|F2ag fedc|Bcde fdgf|e2c2c2:|

